X:1
T:Title
%%score ( 1 2 3 ) { 4 | 5 }
L:1/8
M:3/4
K:F
V:1 treble nm="Bright Piano"
V:2 treble 
V:3 treble 
V:4 bass nm="Bright Piano"
V:5 bass 
V:1
 z2 z2 z[Q:1/4=94] C | [CF][EG] [FA]2 [Fc]2 | [Ec]2 [EB]2 z [EG] | [_E^F][=EG] [Ac]2 [GB]2 | %4
 [FA]4 z C | F[EG] [FA]2 [Fc]2 | [Ac]2 [GB]2 z [EG] | [Fc]>[GB] [FA]2 [EG]2 |[M:2/4] [CF]4 | %9
[M:1/4] F2 |[M:3/4] [Fd]3 [FB] [FB][Fd] | [Fd]2 [Fc]2 z [FA] | [EG]3 [FA] [Ac][GB] | [FA]4 F2 | %14
 [Fd]3 [FB] [FB][Fd] | z2 c4 | [Ac]>[GB] [FA]2 [EG]2 |[M:5/8] [CF]- [CF]3 z |] %18
V:2
 x6 | x6 | x6 | x6 | x6 | x6 | x6 | x6 |[M:2/4] x4 |[M:1/4] x2 |[M:3/4] x6 | x6 | x6 | x6 | x6 | %15
 [Fd]2 F2 z A | x6 |[M:5/8] x5 |] %18
V:3
 x6 | x6 | x6 | x6 | x6 | x6 | x6 | x6 |[M:2/4] x4 |[M:1/4] x2 |[M:3/4] x6 | x6 | x6 | x6 | x6 | %15
 z2 z2 F2 | x6 |[M:5/8] x5 |] %18
V:4
 z2 z2 z C, | F,B, C2 F,2 | G,2 G,2 z[K:treble] C | CC C2 C2 | C4 z A, | CB, C2 C2 | C2 C2 z C | %7
 C>D C2[K:bass] B,2 |[M:2/4] A,4 |[M:1/4] F,2 |[M:3/4] B,3 B, B,B, | B,2 A,2 z[K:treble] C | %12
 C3 C CC | C4[K:bass] A,2 | B,3 B, B,B, | B,2 A,2[K:treble] CD | _E>D C2 CB, |[M:5/8] A,- A,3 z |] %18
V:5
 z6 | A,,G,, F,,2 A,,2 | C,2 C,2 z C, | C,C, C,D, E,2 | F,4 z F, | A,G, F,2 A,,2 | C,2 C,2 z C, | %7
 A,,>B,, C,2 C,2 |[M:2/4] F,4 |[M:1/4] z2 |[M:3/4] B,,3 D, D,B,, | F,2 F,2 z F, | C,3 F, D,E, | %13
 F,4 F,2 | B,,3 D, D,B,, | F,2 F,2 F,2 | F,>B,, C,2 C,2 |[M:5/8] F,- F,3 z |] %18

